!!!Melodie: Eigene
!!!Typ: Lied
**kern	**silbe	**silbe	**silbe	**silbe	**silbe	**silbe	**silbe	**silbe	**silbe	**silbe	**silbe	**silbe	**silbe	**silbe	**silbe	**silbe	**silbe	**silbe	**silbe	**silbe
*clefG2	*lang:DE	*lang:DE	*lang:DE	*lang:DE	*lang:DE	*lang:DE	*lang:DE	*lang:DE	*lang:DE	*lang:DE	*lang:DE	*lang:DE	*lang:DE	*lang:DE	*lang:DE	*lang:DE	*lang:DE	*lang:DE	*lang:DE	*lang:DE
*M4/4	*	*	*	*	*	*	*	*	*	*	*	*	*	*	*	*	*	*	*	*
*met(c|)	*	*	*	*	*	*	*	*	*	*	*	*	*	*	*	*	*	*	*	*
4a	Eins	Al#	See#	lass,	Wie	da	Al#	lass	Al#	gib	Nichts	Je#	Nun	du	Ja,	du	Vol#	weil	Drum	Prüf’,
4e	ist	#les	#le,	was	Ma#	sie	#so	mich	#ler	nur,	kann	#su,	so	bist	was	bist	#les	auf	auch,	er#
8La	not.	an#	willst	ir#	#ri#	sich	ist	treu#	Weis#	dass	ich	es	gib,	ja,	soll	ein#	‘G’nü#	ei#	Je#	#fah#
8Jb	|	|	|	|	|	|	|	|	|	|	|	|	|	|	|	|	|	|	|	|
4cc	Ach	#d're,	du	#disch	#a	zu	auch	#lich	#heit	sich	vor	muss	dass	den	ich	#mal	#gen,	#ne	#su,	#re,
4.b	Herr,	wie’s	die#	ist,	war	Je#	mein	an	höch#	auch	Gott	mir	mei#	ich	mehr	ein#	Fried’	fri#	du	wie
8a	dies	auch	#ses	da#	be#	#su	Ver#	dir	#ste	mein	ja	ge#	#ne	er#	ver#	#ge#	und	#sche	al#	ich’s
4b	ei#	schei#	fin#	#hin#	#flis#	Fü#	#lan#	han#	Fül#	Wil#	brin#	#lin#	See#	#wäh#	#lan#	#gan#	Freu#	Wei#	#lei#	mei#
4b	#ne	#ne,	#den,	#nen,	#sen	#ßen	#gen,	#gen,	#le	#le	#gen	#gen	#le	#le,	#gen,	#gen	#de	#de	#ne,	#ne,
=	=	=	=	=	=	=	=	=	=	=	=	=	=	=	=	=	=	=	=	=
4cc	leh#	ist	such’s	schwing	auf	vol#	lieb#	schen#	in	fein	als	durch	auch	mir	mich	in	jet#	mein	sollst	til#
4dd	#re	ja	bei	dich	des	#ler	#ster	#ke	dir	in	nur	dein	nach	zur	be#	das	#zo	Hirt’,	mein	#ge
4ee	mich	nur	kei#	ü#	ei#	An#	Je#	dich	ja	sol#	dich,	ro#	dei#	Hei#	#schwemmt	Heil#	mei#	Je#	Ein	al#
4ee	er#	ein	#ner	#ber	#ni#	#dacht	#su,	zu	ver#	#che	mein	#sin#	#nem	#li#	der	#'ge	#ne	#sus,	und	#len
4.ee	#ken#	schwe#	Kre#	die	#gen	nie#	nur	ei#	#bor#	Schran#	höch#	#far#	Bild	#gung	Gna#	durch	Seel’	mich	Al#	Heu#
8dd	#nen	#res	#a#	Na#	Ge#	#der#	nach	#gen	#gen	#ken	#stes	#bes	er#	ge#	#den#	dein	er#	ge#	#les	#chel#
2ee	doch!	Joch,	#tur:	#tur	#nieß',	#ließ,	dir,	mir,	liegt,	fügt,	Gut,	Blut,	#wacht,	#macht,	#flut:	Blut,	#götzt,	#setzt,	sein.	#schein,
=:|	=	=	=	=	=	=	=	=	=	=	=	=	=	=	=	=	=	=	=	=
*M3/4	*	*	*	*	*	*	*	*	*	*	*	*	*	*	*	*	*	*	*	*
4r	.	%	.	%	.	%	.	%	.	%	.	%	.	%	.	%	.	%	.	%
4r	.	%	.	%	.	%	.	%	.	%	.	%	.	%	.	%	.	%	.	%
4b	.	dar#	.	Wo	.	ihr	.	ob	.	Wo#	.	die	.	was	.	da	.	nichts	.	sieh,
4cc	.	#un#	.	Gott	.	Her#	.	viel	.	#rin#	.	höch#	.	die#	.	hast	.	Sü#	.	ob
4dd	.	#ter	.	und	.	#ze	.	auch	.	#ne	.	#ste	.	#net	.	du	.	#ßes	.	ich
4ee	.	das	.	die	.	ent#	.	um#	.	die	.	Ge#	.	zum	.	die	.	kann	.	auf
4.dd	.	Her#	.	Mensch#	.	#brann#	.	#kehr#	.	De#	.	#rech#	.	gött#	.	ew#	.	al#	.	bö#
8cc	.	#ze	.	#heit	.	#te	.	#ten	.	#mut	.	#tig#	.	#li#	.	#'ge	.	#so	.	#sen,
4b	.	sich	.	in	.	dies	.	zum	.	und	.	#keit	.	#chen	.	Er#	.	mein	.	be#
=	=	=	=	=	=	=	=	=	=	=	=	=	=	=	=	=	=	=	=	=
4.cc	.	na#	.	ei#	.	ein#	.	grö#	.	Ein#	.	ist	.	Wan#	.	#lö#	.	Her#	.	#trüg#
8b	.	#get	.	#nem	.	#zig'	.	#ßes#	.	#falt	.	mir	.	#del	.	#sung	.	#ze	.	#li#
4a	.	und	.	ver#	.	zu	.	#ten	.	re#	.	er#	.	und	.	er#	.	er#	.	#chen
4b	.	pla#	.	#ei#	.	hö#	.	Hau#	.	#gie#	.	#wor#	.	Le#	.	#fun#	.	#la#	.	Ste#
4b	.	#get,	.	#net,	.	#ren,	.	#fen,	.	#ret	.	#ben,	.	#ben,	.	#den,	.	#ben,	.	#ge,
4g	.	und	.	wo	.	was	.	so	.	und	.	da	.	ist	.	dass	.	als	.	und
=	=	=	=	=	=	=	=	=	=	=	=	=	=	=	=	=	=	=	=	=
4g	.	den#	.	al#	.	Je#	.	will	.	mich	.	du	.	in	.	ich	.	wenn	.	lei#
4f	.	#noch	.	#le	.	#sus,	.	ich	.	zu	.	bist	.	dir,	.	nun	.	ich	.	#te
4e	.	kein	.	voll#	.	ihr	.	dir	.	der	.	am	.	mein	.	der	.	nur	.	mich,
4e	.	wah#	.	#komm#	.	Hei#	.	den#	.	Weis#	.	Stam#	.	Hei#	.	höl#	.	Je#	.	Höch#
4e	.	#res	.	#e#	.	#land,	.	#noch	.	#heit,	.	#me	.	#land,	.	#li#	.	#su,	.	#ster,
4ee	.	Ver#	.	#ne	.	sie	.	in	.	die	.	des	.	mir	.	#schen	.	dich	.	auf
4.ff	.	#gnü#	.	Fül#	.	wol#	.	Lie#	.	himm#	.	Kreu#	.	al#	.	Herr#	.	im#	.	e#
8gg	.	#gen	.	#le	.	#te	.	#be	.	#lisch	.	#es	.	#les	.	#schaft	.	#mer	.	#wi#
4ff	.	er#	.	er#	.	be#	.	nach#	.	ist,	.	ge#	.	ge#	.	ent#	.	soll	.	#gem
4ee	.	#ja#	.	#schei#	.	#leh#	.	#lau#	.	füh#	.	#stor#	.	#ge#	.	#bun#	.	ha#	.	We#
4ee	.	#get;	.	#net,	.	#ren,	.	#fen,	.	#ret,	.	#ben,	.	#ben,	.	#den,	.	#ben,	.	#ge,
4b	.	er#	.	da,	.	ihr	.	denn	.	ach,	.	die	.	ent#	.	dein	.	nichts,	.	Gib,
=	=	=	=	=	=	=	=	=	=	=	=	=	=	=	=	=	=	=	=	=
4cc	.	#lang'	.	da	.	Al#	.	dein	.	wenn	.	Klei#	.	#rei#	.	Ein#	.	nichts	.	dass
4dd	.	ich	.	ist	.	#les	.	Wort,	.	ich	.	#der	.	#ße	.	#gang	.	ist	.	ich
4ee	.	dies	.	das	.	war	.	O	.	nur	.	des	.	mich	.	die	.	das,	.	nur
4.dd	.	ei#	.	bes#	.	gänz#	.	Je#	.	Je#	.	Heils	.	al#	.	völ#	.	al#	.	al#
8cc	.	#ne,	.	#te	.	#lich	.	#su,	.	#sum	.	ich	.	#ler	.	#li#	.	#so	.	#les
4b	.	das	.	not#	.	in	.	ist	.	recht	.	da	.	ver#	.	#ge	.	mich	.	hier
4cc	.	al#	.	#wen#	.	Je#	.	Le#	.	ken#	.	ha#	.	#gäng#	.	Frei#	.	in#	.	ach#
4b	.	#les	.	#di#	.	#su	.	#ben	.	#ne	.	#be	.	#li#	.	#heit	.	#nig	.	#te
4a	.	er#	.	#ge	.	ver#	.	und	.	und	.	er#	.	#chen	.	mir	.	er#	.	für
2b	.	#setzt,	.	Teil,	.	#senkt,	.	Geist,	.	weiß,	.	#langt,	.	Lust,	.	bringt,	.	#quickt,	.	Koth
4ee	.	so	.	mein	.	und	.	was	.	so	.	wo#	.	dein	.	im	.	als	.	und
=	=	=	=	=	=	=	=	=	=	=	=	=	=	=	=	=	=	=	=	=
4.ee	.	werd	.	Ein	.	wur#	.	ist	.	hab	.	#rin#	.	Le#	.	kind#	.	wenn	.	Je#
8dd	.	ich	.	und	.	#de	.	wohl,	.	ich	.	#ne	.	#ben	.	#li#	.	ich	.	#sum
4cc	.	mit	.	mein	.	ihr	.	das	.	der	.	mein	.	sei,	.	#chen	.	dich,	.	ge#
4dd	.	ei#	.	Al#	.	Al#	.	man	.	Weis#	.	Glau#	.	Je#	.	Gei#	.	Je#	.	#win#
4dd	.	#nem	.	#les	.	#les	.	nicht	.	#heit	.	#be	.	#su,	.	#ste	.	#su,	.	#ne,
4cc	.	in	.	und	.	in	.	in	.	voll#	.	in	.	mir	.	das	.	im	.	dies
=	=	=	=	=	=	=	=	=	=	=	=	=	=	=	=	=	=	=	=	=
4.b	.	al#	.	see#	.	Ei#	.	Je#	.	#komm#	.	E#	.	ein#	.	Ab#	.	Glau#	.	ei#
8a	.	#lem	.	#lig#	.	#nem	.	#su	.	#e#	.	#wig#	.	#zig	.	#ba	.	#ben	.	#ne
4g#	.	er#	.	#stes	.	ge#	.	ge#	.	#nen	.	#keit	.	be#	.	nun	.	er#	.	ist
2.a	.	#götzt.	.	Heil.	.	#schenkt.	.	#neust.	.	Preis.	.	prangt.	.	#wusst.	.	klingt.	.	#blickt.	.	Not.
==	==	==	==	==	==	==	==	==	==	==	==	==	==	==	==	==	==	==	==	==
*-	*-	*-	*-	*-	*-	*-	*-	*-	*-	*-	*-	*-	*-	*-	*-	*-	*-	*-	*-	*-
